static/images/mobile/copyright/wikipedia-wordmark-skr.svg

<?xml version="1.0" encoding="UTF-8"?>
<svg width="79px" height="32px" viewBox="0 0 79 32" version="1.1" xmlns="http://www.w3.org/2000/svg" xmlns:xlink="http://www.w3.org/1999/xlink">
    <title>wikipedia-wordmark-skr</title>
    <g id="Page-1" stroke="none" stroke-width="1" fill="none" fill-rule="evenodd">
        <path d="M40.1132561,28.1973402 L42.7490347,30.1055341 L41.2801373,32 L38.6855427,30.1741742 L40.1132561,28.1973402 Z M45.8652939,26.4126984 L48.7344487,28.2522523 L47.5538396,30.1604462 L44.6984127,28.4444444 L45.8652939,26.4126984 Z M27.8541399,26.4126984 L30.7232947,28.2522523 L29.5426855,30.1604462 L26.6872587,28.4444444 L27.8541399,26.4126984 Z M49.9425139,26.3028743 L52.8391248,28.032604 L51.6173316,30.0918061 L48.7344487,28.2522523 L49.9425139,26.3028743 Z M31.9313599,26.3028743 L34.8279708,28.032604 L33.6061776,30.0918061 L30.7232947,28.2522523 L31.9313599,26.3028743 Z M75.8060918,14.2771343 C76.034892,14.2771343 76.2865723,14.3732304 76.5611326,14.5654226 C77.8790219,15.4806235 78.5379665,17.4071214 78.5379665,20.3449163 C78.5379665,22.7518948 77.970542,24.8477048 76.8356928,26.6323466 C75.5086515,28.7007007 73.7102817,29.7348777 71.4405834,29.7348777 C69.8023738,29.7348777 68.5027885,29.3504934 67.5418275,28.5817246 C67.1208351,28.2431002 66.7250107,27.7854998 66.3543544,27.2089232 C65.983698,26.6323466 65.6427856,25.9413699 65.3316173,25.1359931 C65.5878736,25.6576577 66.3474903,26.2388102 67.6104676,26.8794509 C68.7910768,27.4743315 69.7200057,27.7717718 70.3972544,27.7717718 C71.1111111,27.7717718 71.8135278,27.6482196 72.5045045,27.4011154 C73.1954812,27.1540112 73.8315458,26.8153868 74.4126984,26.3852424 C74.993851,25.955098 75.4972115,25.4448734 75.9227799,24.8545689 C76.3483483,24.2642643 76.6526527,23.6304876 76.8356928,22.953239 C76.7624768,22.962391 76.6938367,22.969255 76.6297726,22.973831 C76.5657086,22.978407 76.5016445,22.980695 76.4375804,22.980695 C75.8793079,22.980695 75.3484913,22.8777349 74.8451308,22.6718147 C74.3417703,22.4658945 73.8956099,22.1867582 73.5066495,21.8344058 C73.1176891,21.4820535 72.8088088,21.0679251 72.5800086,20.5920206 C72.3512084,20.1161161 72.2368082,19.6173316 72.2368082,19.0956671 C72.2368082,18.2536823 72.6211926,17.2561133 73.3899614,16.1029601 C74.2227942,14.8857429 75.028171,14.2771343 75.8060918,14.2771343 Z M36.996997,24.2024882 L39.6739597,26.1244101 L38.1913342,28.1149721 L35.5143715,26.1381381 L36.996997,24.2024882 Z M41.1154011,24.2024882 L43.6413556,25.959674 L42.2685543,27.977692 L39.6739597,26.1244101 L41.1154011,24.2024882 Z M25.2320892,22.8845989 C25.1222651,23.1317031 24.1841842,23.3742314 22.4178464,23.6121836 C20.953525,23.8043758 19.8369798,23.9004719 19.0682111,23.9004719 C18.043186,23.9004719 17.3339053,23.7952238 16.9403689,23.5847276 C16.4004004,23.2644073 16.1304161,22.6374946 16.1304161,21.7039897 C16.1304161,21.5209495 16.1601602,21.2509653 16.2196482,20.8940369 C16.2791363,20.5371085 16.3523524,20.1824682 16.4392964,19.8301158 C16.5262405,19.4777635 16.6223366,19.1688832 16.7275847,18.9034749 C16.8328328,18.6380666 16.9403689,18.5053625 17.0501931,18.5053625 L17.1051051,18.5190905 L17.1051051,19.5349635 C17.1051051,20.2305162 17.1737452,20.6240526 17.3110253,20.7155727 C17.7503218,20.962677 18.5099385,21.0862291 19.5898756,21.0862291 C19.965108,21.0862291 20.3723724,21.0702131 20.8116688,21.038181 C21.2509653,21.006149 21.7314457,20.953525 22.2531103,20.8803089 C23.6533677,20.6881167 24.3534964,20.4227084 24.3534964,20.0840841 C24.3534964,19.6264836 24.042328,18.5236665 23.4199914,16.7756328 C22.7793508,14.954383 22.3309023,14.00715 22.0746461,13.9339339 L23.6121836,10.7490347 C24.5822966,13.1194051 25.3419133,16.2860003 25.8910339,20.2488202 L32.9472329,20.2488202 C33.0936651,20.2488202 33.1668812,20.1252681 33.1668812,19.8781639 C33.1668812,19.6951237 33.1096811,19.4320034 32.995281,19.0888031 C32.8808809,18.7456027 32.7413127,18.4046904 32.5765766,18.0660661 C32.4118404,17.7274417 32.2402402,17.4300014 32.0617761,17.1737452 C31.8833119,16.9174889 31.7300157,16.7893608 31.6018876,16.7893608 L32.8511369,13.8927499 C33.4551695,14.5791506 33.972258,15.5812956 34.4024024,16.8991849 C34.8325468,18.1530102 35.047619,19.2695553 35.047619,20.2488202 L41.95281,20.2488202 C42.0992421,20.2488202 42.1724582,20.1252681 42.1724582,19.8781639 C42.1724582,19.6951237 42.1152581,19.4320034 42.000858,19.0888031 C41.8864579,18.7456027 41.7468897,18.4046904 41.5821536,18.0660661 C41.4174174,17.7274417 41.2458172,17.4300014 41.0673531,17.1737452 C40.8888889,16.9174889 40.7355927,16.7893608 40.6074646,16.7893608 L41.8567139,13.8927499 C42.4607465,14.5791506 42.977835,15.5812956 43.4079794,16.8991849 C43.8381238,18.1530102 44.0531961,19.2695553 44.0531961,20.2488202 L50.958387,20.2488202 C51.1048191,20.2488202 51.1780352,20.1252681 51.1780352,19.8781639 C51.1780352,19.6951237 51.1208351,19.4320034 51.006435,19.0888031 C50.8920349,18.7456027 50.7524668,18.4046904 50.5877306,18.0660661 C50.4229944,17.7274417 50.2513943,17.4300014 50.0729301,17.1737452 C49.8944659,16.9174889 49.7411697,16.7893608 49.6130416,16.7893608 L50.8622909,13.8927499 C51.4663235,14.5791506 51.983412,15.5812956 52.4135564,16.8991849 C52.8437008,18.1530102 53.0587731,19.2695553 53.0587731,20.2488202 L61.7623338,20.2488202 C63.043615,20.2488202 63.6842557,20.1618762 63.6842557,19.987988 C63.6842557,19.6859717 62.5356785,18.4824825 60.2385242,16.3775204 C57.959674,14.2634063 56.6463606,13.2063492 56.2985843,13.2063492 C56.2253682,13.2978693 56.1338481,13.6044616 56.024024,14.1261261 C55.8318318,13.96139 55.5961676,13.7486057 55.3170313,13.4877735 C55.037895,13.2269412 54.7152867,12.9226369 54.3492063,12.5748606 C53.6719577,11.9067639 53.3333333,11.2615473 53.3333333,10.6392106 C53.3333333,9.99857 53.6490776,9.15658516 54.2805663,8.11325611 C54.6374946,7.54583155 58.6598027,5.6971257 66.3474903,2.56713857 L65.015873,5.84813385 L55.4611755,9.73316173 C55.6167596,9.87959388 55.8249678,10.0580581 56.0858001,10.2685543 C56.3466323,10.4790505 56.6692407,10.7215787 57.0536251,10.996139 C59.2134992,12.6435006 61.046189,14.2016302 62.5516946,15.6705277 C64.0572001,17.1394251 65.2492492,18.5282425 66.1278421,19.8369798 C66.3200343,20.1206921 66.4161304,20.4867725 66.4161304,20.9352209 C66.4161304,21.7497497 66.2880023,22.3492063 66.031746,22.7335907 C65.967682,22.8342628 65.4643215,22.8845989 64.5216645,22.8845989 L25.2320892,22.8845989 Z M75.1608752,17.4208494 C75.014443,17.4208494 74.8680109,17.4666095 74.7215787,17.5581296 C74.5751466,17.6496496 74.4424424,17.7686258 74.3234663,17.9150579 C74.2044902,18.0614901 74.1106821,18.2216502 74.042042,18.3955384 C73.973402,18.5694266 73.9390819,18.7341627 73.9390819,18.8897469 C73.9390819,19.0636351 74.028314,19.2352352 74.2067782,19.4045474 C74.3852424,19.5738596 74.6094666,19.7202917 74.8794509,19.8438438 C75.1494351,19.967396 75.4445874,20.0657801 75.7649078,20.1389961 C76.0852281,20.2122122 76.3918204,20.2488202 76.6846847,20.2488202 C76.968397,20.2488202 77.1102531,20.1435721 77.1102531,19.9330759 C77.1102531,19.6402116 77.0576291,19.3427713 76.952381,19.040755 C76.8471328,18.7387387 76.7098527,18.4687545 76.5405405,18.2308022 C76.3712284,17.99285 76.1675962,17.7983698 75.9296439,17.6473616 C75.6916917,17.4963535 75.4354354,17.4208494 75.1608752,17.4208494 Z M21.6902617,0 L21.7726298,1.08451308 L22.2668383,1.59244959 L21.8412698,2.44358644 L21.8412698,5.98541399 C22.7015587,5.0976691 23.4840555,4.65379665 24.1887602,4.65379665 C24.3534964,4.65379665 24.5205205,4.68354068 24.6898327,4.74302874 C24.8591449,4.8025168 25.012441,4.86658087 25.1497211,4.93522094 C25.2870013,5.003861 25.4014014,5.07478907 25.4929215,5.14800515 C25.5844416,5.22122122 25.6439296,5.27613328 25.6713857,5.31274131 C25.8727299,5.53238953 25.973402,5.90762191 25.973402,6.43843844 L25.973402,7.31703132 C25.973402,7.44515945 25.9299299,7.52752753 25.8429858,7.56413556 C25.7560418,7.6007436 25.6668097,7.61904762 25.5752896,7.61904762 L19.5898756,7.61904762 L19.2054912,6.65808666 C19.4800515,6.71299871 19.7180037,6.74045474 19.9193479,6.74045474 C20.4135564,6.74045474 20.8437008,6.61232661 21.2097812,6.35607036 L21.2097812,2.00429 L20.990133,0.906048906 L21.6902617,0 Z M23.6670957,5.61475761 C23.5664236,5.61475761 23.4360074,5.65365365 23.2758473,5.73144573 C23.1156871,5.80923781 22.9486629,5.9007579 22.7747748,6.00600601 C22.6008866,6.11125411 22.4453024,6.22336622 22.3080223,6.34234234 C22.1707422,6.46131846 22.0746461,6.56656657 22.019734,6.65808666 C22.4498784,6.69469469 22.8296868,6.72215072 23.1591592,6.74045474 C23.4886315,6.75875876 23.7586158,6.76791077 23.969112,6.76791077 C24.957529,6.76791077 25.4517375,6.69011869 25.4517375,6.53453453 C25.4517375,6.41555842 25.3968254,6.3034463 25.2870013,6.1981982 C25.1771772,6.09295009 25.035321,5.996854 24.8614329,5.90990991 C24.6875447,5.82296582 24.4953525,5.75203775 24.2848563,5.6971257 C24.0743601,5.64221364 23.8684399,5.61475761 23.6670957,5.61475761 Z M6.46589447,26.4126984 L9.33504934,28.2522523 L8.15444015,30.1604462 L5.2990133,28.4444444 L6.46589447,26.4126984 Z M10.5431145,26.3028743 L13.4397254,28.032604 L12.2179322,30.0918061 L9.33504934,28.2522523 L10.5431145,26.3028743 Z M11.5589876,20.2488202 C11.7054197,20.2488202 11.7786358,20.1252681 11.7786358,19.8781639 C11.7786358,19.6951237 11.7214357,19.4320034 11.6070356,19.0888031 C11.4926355,18.7456027 11.3530674,18.4046904 11.1883312,18.0660661 C11.023595,17.7274417 10.8519949,17.4300014 10.6735307,17.1737452 C10.4950665,16.9174889 10.3417703,16.7893608 10.2136422,16.7893608 L11.4217074,13.9339339 C11.97998,14.1810382 12.5062205,15.1786072 13.000429,16.9266409 C13.4397254,18.4733305 13.6593737,19.6676677 13.6593737,20.5096525 C13.6593737,22.0929501 13.4397254,22.8845989 13.000429,22.8845989 L3.85757186,22.8845989 C2.96982697,22.8845989 2.23995424,22.7816388 1.66795367,22.5757186 C1.0959531,22.3697984 0.674960675,22.044902 0.404976405,21.6010296 C0.134992135,21.1571572 0,20.3723724 0,19.2466752 L0,5.14800515 L2.05920206,2.56713857 L2.05920206,19.2466752 C2.05920206,19.9147719 2.37037037,20.2488202 2.99270699,20.2488202 L11.5589876,20.2488202 Z" id="wikipedia-wordmark-skr" fill="#000000" fill-rule="nonzero"></path>
    </g>
</svg>

<svg xmlns="http://www.w3.org/2000/svg" width="79" height="32"><path fill="#000" fill-rule="nonzero" d="m40.113 28.197 2.636 1.909L41.28 32l-2.594-1.826 1.427-1.977Zm5.752-1.784 2.87 1.84-1.181 1.907-2.856-1.716 1.167-2.031Zm-18.01 0 2.868 1.84-1.18 1.907-2.856-1.716 1.167-2.031Zm22.088-.11 2.896 1.73-1.222 2.059-2.883-1.84 1.209-1.95Zm-18.012 0 2.897 1.73-1.222 2.059-2.883-1.84 1.208-1.95Zm43.875-12.026c.229 0 .48.096.755.288 1.318.916 1.977 2.842 1.977 5.78 0 2.407-.567 4.503-1.702 6.287-1.327 2.069-3.126 3.103-5.395 3.103-1.639 0-2.938-.385-3.9-1.153-.42-.339-.816-.797-1.187-1.373-.37-.577-.711-1.268-1.022-2.073.256.522 1.015 1.103 2.278 1.743 1.181.595 2.11.893 2.787.893.714 0 1.417-.124 2.108-.37a7.347 7.347 0 0 0 1.908-1.017 6.945 6.945 0 0 0 1.51-1.53c.425-.59.73-1.225.913-1.902a3.915 3.915 0 0 1-.398.028c-.559 0-1.09-.103-1.593-.31a4.53 4.53 0 0 1-1.338-.837 3.997 3.997 0 0 1-.927-1.242 3.412 3.412 0 0 1-.343-1.496c0-.842.384-1.84 1.153-2.993.833-1.217 1.638-1.826 2.416-1.826Zm-38.809 9.925 2.677 1.922-1.483 1.991-2.677-1.977 1.483-1.936Zm4.118 0 2.526 1.758-1.372 2.018-2.595-1.854 1.441-1.922Zm-15.883-1.317c-.11.247-1.048.49-2.814.727-1.464.192-2.581.288-3.35.288-1.025 0-1.734-.105-2.128-.315-.54-.32-.81-.948-.81-1.881 0-.183.03-.453.09-.81.06-.357.132-.712.22-1.064.086-.352.182-.661.288-.927.105-.265.212-.398.322-.398l.055.014v1.016c0 .696.069 1.09.206 1.18.44.248 1.199.371 2.279.371.375 0 .782-.016 1.222-.048.439-.032.92-.084 1.441-.158 1.4-.192 2.1-.457 2.1-.796 0-.458-.31-1.56-.933-3.308-.64-1.822-1.09-2.769-1.345-2.842l1.537-3.185c.97 2.37 1.73 5.537 2.279 9.5h7.056c.147 0 .22-.124.22-.37 0-.184-.057-.447-.172-.79a8.434 8.434 0 0 0-.418-1.023 6.663 6.663 0 0 0-.515-.892c-.179-.257-.332-.385-.46-.385l1.25-2.896c.603.686 1.12 1.688 1.55 3.006.43 1.254.646 2.37.646 3.35h6.905c.146 0 .22-.124.22-.37 0-.184-.058-.447-.172-.79a8.434 8.434 0 0 0-.419-1.023 6.663 6.663 0 0 0-.515-.892c-.178-.257-.331-.385-.46-.385l1.25-2.896c.604.686 1.12 1.688 1.551 3.006.43 1.254.645 2.37.645 3.35h6.905c.147 0 .22-.124.22-.37 0-.184-.057-.447-.172-.79a8.434 8.434 0 0 0-.418-1.023 6.663 6.663 0 0 0-.515-.892c-.179-.257-.332-.385-.46-.385l1.25-2.896c.603.686 1.12 1.688 1.55 3.006.43 1.254.646 2.37.646 3.35h8.703c1.282 0 1.922-.087 1.922-.261 0-.302-1.148-1.506-3.445-3.61-2.28-2.115-3.593-3.172-3.94-3.172-.074.092-.165.398-.275.92a22.925 22.925 0 0 1-.707-.638c-.28-.261-.602-.565-.968-.913-.677-.668-1.016-1.313-1.016-1.936 0-.64.316-1.482.948-2.526.356-.567 4.379-2.416 12.066-5.546l-1.331 3.281-9.555 3.885c.156.147.364.325.625.536.26.21.583.453.968.727 2.16 1.648 3.992 3.206 5.498 4.675 1.505 1.468 2.697 2.857 3.576 4.166.192.284.288.65.288 1.098 0 .815-.128 1.414-.384 1.799-.064.1-.568.15-1.51.15h-39.29Zm49.929-5.464a.823.823 0 0 0-.44.137 1.62 1.62 0 0 0-.398.357 1.814 1.814 0 0 0-.281.48 1.347 1.347 0 0 0-.103.495c0 .174.09.345.268.515.178.169.402.315.672.439.27.123.566.222.886.295.32.073.627.11.92.11.283 0 .425-.105.425-.316a2.7 2.7 0 0 0-.158-.892 3.21 3.21 0 0 0-.411-.81 2.177 2.177 0 0 0-.611-.584 1.409 1.409 0 0 0-.77-.226ZM21.69 0l.082 1.085.494.507-.426.852v3.541c.86-.887 1.643-1.331 2.348-1.331.164 0 .332.03.5.089.17.06.323.124.46.192.138.069.252.14.344.213.091.073.15.128.178.165.202.22.302.595.302 1.125v.879c0 .128-.043.21-.13.247a.684.684 0 0 1-.268.055H19.59l-.385-.96c.275.054.513.081.714.081.495 0 .925-.128 1.29-.384V2.004L20.99.906l.7-.906Zm1.976 5.615c-.1 0-.231.039-.391.116-.16.078-.327.17-.501.275-.174.105-.33.217-.467.336a1.423 1.423 0 0 0-.288.316c.43.037.81.064 1.14.082.329.019.599.028.81.028.988 0 1.482-.078 1.482-.233 0-.12-.055-.232-.165-.337a1.727 1.727 0 0 0-.426-.288 2.953 2.953 0 0 0-.576-.213 2.442 2.442 0 0 0-.618-.082ZM6.466 26.413l2.869 1.84-1.18 1.907-2.856-1.716 1.167-2.031Zm4.077-.11 2.897 1.73-1.222 2.059-2.883-1.84 1.208-1.95Zm1.016-6.054c.146 0 .22-.124.22-.37 0-.184-.058-.447-.172-.79a8.434 8.434 0 0 0-.419-1.023 6.663 6.663 0 0 0-.514-.892c-.179-.257-.332-.385-.46-.385l1.208-2.855c.558.247 1.084 1.245 1.578 2.993.44 1.546.66 2.74.66 3.583 0 1.583-.22 2.375-.66 2.375H3.858c-.888 0-1.618-.103-2.19-.31-.572-.205-.993-.53-1.263-.974C.135 21.157 0 20.372 0 19.247V5.148l2.06-2.58v16.679c0 .668.31 1.002.933 1.002h8.566Z"/></svg>
